public/images/logos/citadium.svg

<svg xmlns="http://www.w3.org/2000/svg" width="600" height="83" fill="none"><path fill="#000" d="M30.9 82.4C12 82.4 0 69.8 0 41.2 0 13.7 12 0 30.9 0 45.8 0 57 10.5 59.1 26.3H45.9c-1.7-8.9-6.4-14.3-15-14.3-10.9 0-17.7 7.4-17.7 29.2 0 21.8 6.9 29.2 17.7 29.2 8.6 0 13.5-5.4 15.2-14.3h13.2c-2 14.6-13.5 26.3-28.4 26.3Zm57.9-1.1H75.6V1.2h13.2v80.1Zm47.9 0h-13.2V13.2H104v-12h52.1v12h-19.5v68.1h.1Zm89.5 0h-13.7l-4.9-18.9h-26.1l-4.9 18.9h-13.3l22.9-80.1h17.2l22.8 80.1Zm-41.6-30.9h19.9l-10-38.8-9.9 38.8Zm56.7 30.9V1.2h27.5c18.3 0 31.5 10.3 31.5 40.1 0 28.6-13.2 40.1-31.5 40.1h-27.5v-.1Zm27.5-68.1h-14.3v56h14.3c10.3 0 18.3-6.3 18.3-28s-8-28-18.3-28Zm63.4 68.1H319V1.2h13.2v80.1Zm48.5 1.1c-14.9 0-27.5-6.3-27.5-27.5V1.1h13.2v53.2c0 10.9 4.5 16 14.3 16s14.3-5.2 14.3-16V1.1h13.2v53.8c0 20.1-12.6 27.5-27.5 27.5Zm118.4-1.1h-12.6V20.5L471 81.3h-13.7l-15.5-60.8v60.8h-12.6V1.2h19.5l15.5 65 15.5-65h19.5v80.1h-.1Zm59.7 1.1c-22.7 0-41.2-17.4-41.2-41.2 0-23.8 18.5-41.2 41.2-41.2C581.5 0 600 17.4 600 41.2c0 23.8-18.5 41.2-41.2 41.2Zm0-6.6c19 0 34.1-14.4 34.1-34.6 0-20.2-15.1-34.6-34.1-34.6s-34 14.4-34 34.6c0 20.2 15 34.6 34 34.6Zm.5-13c-12.4 0-19.3-7.8-19.3-21.6 0-13.5 7-21.7 19.3-21.7 10.5 0 16.7 5.8 18.4 15.7h-11c-1.4-5.2-4.3-6.6-7.4-6.6-4.5 0-8.4 3.5-8.4 12.7s3.9 12.6 8.4 12.6c3.8 0 6.4-1.7 7.7-6.4h11c-2.1 9.6-8.4 15.3-18.7 15.3Z"/></svg>

<svg width="600" height="83" viewBox="0 0 600 83" fill="none" xmlns="http://www.w3.org/2000/svg">
<path d="M30.9 82.4C12 82.4 0 69.8 0 41.2C0 13.7 12 0 30.9 0C45.8 0 57 10.5 59.1 26.3H45.9C44.2 17.4 39.5 12 30.9 12C20 12 13.2 19.4 13.2 41.2C13.2 63 20.1 70.4 30.9 70.4C39.5 70.4 44.4 65 46.1 56.1H59.3C57.3 70.7 45.8 82.4 30.9 82.4ZM88.8 81.3H75.6V1.20001H88.8V81.3ZM136.7 81.3H123.5V13.2H104V1.20001H156.1V13.2H136.6V81.3H136.7ZM226.2 81.3H212.5L207.6 62.4H181.5L176.6 81.3H163.3L186.2 1.20001H203.4L226.2 81.3ZM184.6 50.4H204.5L194.5 11.6L184.6 50.4ZM241.3 81.3V1.20001H268.8C287.1 1.20001 300.3 11.5 300.3 41.3C300.3 69.9 287.1 81.4 268.8 81.4H241.3V81.3ZM268.8 13.2H254.5V69.2H268.8C279.1 69.2 287.1 62.9 287.1 41.2C287.1 19.5 279.1 13.2 268.8 13.2ZM332.2 81.3H319V1.20001H332.2V81.3ZM380.7 82.4C365.8 82.4 353.2 76.1 353.2 54.9V1.10001H366.4V54.3C366.4 65.2 370.9 70.3 380.7 70.3C390.5 70.3 395 65.1 395 54.3V1.10001H408.2V54.9C408.2 75 395.6 82.4 380.7 82.4ZM499.1 81.3H486.5V20.5L471 81.3H457.3L441.8 20.5V81.3H429.2V1.20001H448.7L464.2 66.2L479.7 1.20001H499.2V81.3H499.1ZM558.8 82.4C536.1 82.4 517.6 65 517.6 41.2C517.6 17.4 536.1 0 558.8 0C581.5 0 600 17.4 600 41.2C600 65 581.5 82.4 558.8 82.4ZM558.8 75.8C577.8 75.8 592.9 61.4 592.9 41.2C592.9 21 577.8 6.60001 558.8 6.60001C539.8 6.60001 524.8 21 524.8 41.2C524.8 61.4 539.8 75.8 558.8 75.8ZM559.3 62.8C546.9 62.8 540 55 540 41.2C540 27.7 547 19.5 559.3 19.5C569.8 19.5 576 25.3 577.7 35.2H566.7C565.3 30 562.4 28.6 559.3 28.6C554.8 28.6 550.9 32.1 550.9 41.3C550.9 50.5 554.8 53.9 559.3 53.9C563.1 53.9 565.7 52.2 567 47.5H578C575.9 57.1 569.6 62.8 559.3 62.8Z" fill="black"/>
</svg>
